X: 1
T: Roaring Mary
R: reel
Z: 2006 John Chambers <jc:trillian.mit.edu>
S: printed MS of unknown origin
M: C|
L: 1/8
K: D
|: DF (3FEF AF (3FEF | df (3fef g2fe | dedB     AFAB     | defd     efdB  |
|  DF (3FEF AF (3FEF | df (3fef g2fe | dedB     ABdf     | afeg     fdd2 :|
|: abag     fgfe     | dedA     BGG2 | eg (3gfg bg (3gfg | af (3fef gee2  |
|  DF (3FEF AF (3FEF | df (3fef g2fe | dedB     ABdf     | afeg     fdd2 :|
